Numix-GalliumOS/22/devices/audio-headphones.svg

<?xml version="1.0" encoding="UTF-8" standalone="no"?>
<svg
   xmlns:dc="http://purl.org/dc/elements/1.1/"
   xmlns:cc="http://creativecommons.org/ns#"
   xmlns:rdf="http://www.w3.org/1999/02/22-rdf-syntax-ns#"
   xmlns:svg="http://www.w3.org/2000/svg"
   xmlns="http://www.w3.org/2000/svg"
   xmlns:sodipodi="http://sodipodi.sourceforge.net/DTD/sodipodi-0.dtd"
   xmlns:inkscape="http://www.inkscape.org/namespaces/inkscape"
   viewBox="0 0 22 22"
   id="svg2"
   version="1.1"
   inkscape:version="0.91 r"
   sodipodi:docname="audio-headphones.svg"
   width="22"
   height="22">
  <metadata
     id="metadata12">
    <rdf:RDF>
      <cc:Work
         rdf:about="">
        <dc:format>image/svg+xml</dc:format>
        <dc:type
           rdf:resource="http://purl.org/dc/dcmitype/StillImage" />
        <dc:title />
      </cc:Work>
    </rdf:RDF>
  </metadata>
  <defs
     id="defs10" />
  <sodipodi:namedview
     pagecolor="#ffffff"
     bordercolor="#666666"
     borderopacity="1"
     objecttolerance="10"
     gridtolerance="10"
     guidetolerance="10"
     inkscape:pageopacity="0"
     inkscape:pageshadow="2"
     inkscape:window-width="1920"
     inkscape:window-height="1056"
     id="namedview8"
     showgrid="true"
     inkscape:zoom="15.999999"
     inkscape:cx="18.963328"
     inkscape:cy="15.333141"
     inkscape:window-x="0"
     inkscape:window-y="24"
     inkscape:window-maximized="1"
     inkscape:current-layer="svg2">
    <inkscape:grid
       type="xygrid"
       id="grid4140" />
  </sodipodi:namedview>
  <path
     style="fill:#89c86b;fill-opacity:1;fill-rule:evenodd;stroke:none;stroke-width:1px;stroke-linecap:butt;stroke-linejoin:miter;stroke-opacity:1"
     d="m 10.876776,2.5041538 c 0,0 -1.590957,0.1173897 -2.6515939,0.5158179 C 7.1645438,3.4184008 6.4809785,3.8817397 5.043269,4.9423778 3.6055595,6.0030156 4.289222,6.2070643 4.289222,6.2070643 4.6732484,6.2509933 5.1712058,6.2349013 5.5124777,6.0019798 5.9475179,5.7050608 6.8969369,4.9415581 7.6948634,4.6150714 8.6986703,4.2043456 9.792153,3.9345652 10.876776,3.9345652 c 1.084623,0 2.178106,0.2697804 3.181913,0.6805062 0.797926,0.3264867 1.747344,1.0899894 2.182385,1.3869084 0.341272,0.2329209 0.83923,0.2490178 1.223256,0.2050845 0,0 0.683663,-0.2040487 -0.754047,-1.2646865 C 15.272574,3.8817397 14.589008,3.4184008 13.52837,3.0199717 12.467733,2.6215435 10.876776,2.5041538 10.876776,2.5041538 Z"
     id="path4210"
     inkscape:connector-curvature="0"
     sodipodi:nodetypes="csscssasscssc" />
  <path
     style="opacity:1;fill:none;fill-opacity:1;fill-rule:nonzero;stroke:#515151;stroke-width:0.81;stroke-linecap:butt;stroke-linejoin:miter;stroke-miterlimit:4;stroke-dasharray:none;stroke-dashoffset:0;stroke-opacity:1"
     id="path4142"
     transform="scale(-1,-1)"
     sodipodi:type="arc"
     sodipodi:cx="-11"
     sodipodi:cy="-10.858936"
     sodipodi:rx="8.3699989"
     sodipodi:ry="8.3699999"
     sodipodi:start="0"
     sodipodi:end="3.1415927"
     sodipodi:open="true"
     d="m -2.6300011,-10.858936 a 8.3699989,8.3699999 0 0 1 -4.1849995,7.2486323 8.3699989,8.3699999 0 0 1 -8.3699994,-2e-7 8.3699989,8.3699999 0 0 1 -4.184999,-7.2486331" />
  <path
     style="fill:#89c86b;fill-opacity:1;fill-rule:evenodd;stroke:none;stroke-width:1px;stroke-linecap:butt;stroke-linejoin:miter;stroke-opacity:1"
     d="m 2.225,10.858937 0.135,1.62 0.81,0 -0.135,-1.62 z"
     id="path4166"
     inkscape:connector-curvature="0"
     sodipodi:nodetypes="ccccc" />
  <rect
     style="opacity:1;fill:#515151;fill-opacity:1;fill-rule:nonzero;stroke:none;stroke-width:1;stroke-linecap:butt;stroke-linejoin:miter;stroke-miterlimit:4;stroke-dasharray:none;stroke-dashoffset:0;stroke-opacity:1"
     id="rect4157"
     width="3.7799997"
     height="8.6400003"
     x="2.3434277"
     y="11.556915"
     ry="1.08"
     rx="1.08"
     transform="matrix(0.9961947,-0.08715574,0.08715574,0.9961947,0,0)" />
  <path
     sodipodi:nodetypes="ccccccc"
     style="fill:#515151;fill-opacity:1;fill-rule:evenodd;stroke:none;stroke-width:1px;stroke-linecap:butt;stroke-linejoin:miter;stroke-opacity:1"
     d="M 2.36,12.478713 2.9718335,19.472 3.5097779,19.42493 3.4627079,18.886984 4.0006532,18.839924 3.4358843,12.384583 Z"
     id="path4155"
     inkscape:connector-curvature="0" />
  <rect
     style="opacity:1;fill:#89c86b;fill-opacity:1;fill-rule:nonzero;stroke:none;stroke-width:1;stroke-linecap:butt;stroke-linejoin:miter;stroke-miterlimit:4;stroke-dasharray:none;stroke-dashoffset:0;stroke-opacity:1"
     id="rect4159"
     width="1.08"
     height="8.6400003"
     x="2.3434277"
     y="11.556915"
     transform="matrix(0.9961947,-0.08715574,0.08715574,0.9961947,0,0)" />
  <path
     sodipodi:nodetypes="ccccc"
     inkscape:connector-curvature="0"
     id="path4181"
     d="m 19.775,10.858937 -0.135,1.62 -0.81,0 0.135,-1.62 z"
     style="fill:#89c86b;fill-opacity:1;fill-rule:evenodd;stroke:none;stroke-width:1px;stroke-linecap:butt;stroke-linejoin:miter;stroke-opacity:1" />
  <rect
     rx="1.0799545"
     ry="1.0799997"
     y="9.6394148"
     x="-19.572865"
     height="8.6399975"
     width="3.7798409"
     id="rect4185"
     style="opacity:1;fill:#515151;fill-opacity:1;fill-rule:nonzero;stroke:none;stroke-width:1;stroke-linecap:butt;stroke-linejoin:miter;stroke-miterlimit:4;stroke-dasharray:none;stroke-dashoffset:0;stroke-opacity:1"
     transform="matrix(-0.99619438,-0.08715941,-0.08715207,0.99619502,0,0)" />
  <path
     inkscape:connector-curvature="0"
     id="path4187"
     d="M 19.639999,12.478713 19.028193,19.472 18.49027,19.42493 l 0.04706,-0.537946 -0.537922,-0.04706 0.564744,-6.455341 z"
     style="fill:#515151;fill-opacity:1;fill-rule:evenodd;stroke:none;stroke-width:1px;stroke-linecap:butt;stroke-linejoin:miter;stroke-opacity:1"
     sodipodi:nodetypes="ccccccc" />
  <rect
     y="9.6394148"
     x="-19.572865"
     height="8.6399975"
     width="1.0799545"
     id="rect4189"
     style="opacity:1;fill:#89c86b;fill-opacity:1;fill-rule:nonzero;stroke:none;stroke-width:1;stroke-linecap:butt;stroke-linejoin:miter;stroke-miterlimit:4;stroke-dasharray:none;stroke-dashoffset:0;stroke-opacity:1"
     transform="matrix(-0.99619438,-0.08715941,-0.08715207,0.99619502,0,0)" />
</svg>

<svg xmlns="http://www.w3.org/2000/svg" viewBox="0 0 22 22">
 <path d="m 10.877 2.504 c 0 0 -1.591 0.117 -2.652 0.516 c -1.061 0.398 -1.744 0.862 -3.182 1.922 -1.438 1.061 -0.754 1.265 -0.754 1.265 0.384 0.044 0.882 0.028 1.223 -0.205 0.435 -0.297 1.384 -1.06 2.182 -1.387 1 -0.411 2.097 -0.681 3.182 -0.681 c 1.085 0 2.178 0.27 3.182 0.681 0.798 0.326 1.747 1.09 2.182 1.387 0.341 0.233 0.839 0.249 1.223 0.205 0 0 0.684 -0.204 -0.754 -1.265 c -1.438 -1.061 -2.121 -1.524 -3.182 -1.922 -1.061 -0.398 -2.652 -0.516 -2.652 -0.516" style="fill:#89c86b;fill-opacity:1;stroke:none;fill-rule:evenodd"/>
 <path transform="scale(-1,-1)" d="m -2.63 -10.859 a 8.37 8.37 0 0 1 -4.185 7.249 8.37 8.37 0 0 1 -8.37 0 8.37 8.37 0 0 1 -4.185 -7.249" style="stroke-dasharray:none;stroke-opacity:1;fill:none;opacity:1;stroke-miterlimit:4;fill-opacity:1;stroke:#515151;fill-rule:nonzero;stroke-linecap:butt;stroke-linejoin:miter;stroke-width:0.81;stroke-dashoffset:0"/>
 <path d="m 2.225 10.859 0.135 1.62 0.81 0 -0.135 -1.62 z" style="fill:#89c86b;fill-opacity:1;stroke:none;fill-rule:evenodd"/>
 <rect width="3.78" height="8.64" x="2.343" y="11.557" rx="1.08" transform="matrix(0.9961947,-0.08715574,0.08715574,0.9961947,0,0)" style="fill:#515151;opacity:1;fill-opacity:1;stroke:none;fill-rule:nonzero"/>
 <path d="m 2.36 12.479 0.612 6.993 0.538 -0.047 -0.047 -0.538 0.538 -0.047 -0.565 -6.455" style="fill:#515151;fill-opacity:1;stroke:none;fill-rule:evenodd"/>
 <rect width="1.08" height="8.64" x="2.343" y="11.557" transform="matrix(0.9961947,-0.08715574,0.08715574,0.9961947,0,0)" style="fill:#89c86b;opacity:1;fill-opacity:1;stroke:none;fill-rule:nonzero"/>
 <path d="m 19.775 10.859 -0.135 1.62 -0.81 0 0.135 -1.62 z" style="fill:#89c86b;fill-opacity:1;stroke:none;fill-rule:evenodd"/>
 <rect rx="1.08" y="9.639" x="-19.573" height="8.64" width="3.78" transform="matrix(-0.99619438,-0.08715941,-0.08715207,0.99619502,0,0)" style="fill:#515151;opacity:1;fill-opacity:1;stroke:none;fill-rule:nonzero"/>
 <path d="m 19.64 12.479 -0.612 6.993 -0.538 -0.047 l 0.047 -0.538 -0.538 -0.047 0.565 -6.455 z" style="fill:#515151;fill-opacity:1;stroke:none;fill-rule:evenodd"/>
 <rect y="9.639" x="-19.573" height="8.64" width="1.08" transform="matrix(-0.99619438,-0.08715941,-0.08715207,0.99619502,0,0)" style="fill:#89c86b;opacity:1;fill-opacity:1;stroke:none;fill-rule:nonzero"/>
</svg>
